X: 12678
T: Fat Cat, The
R: hornpipe
M: 4/4
K: Amajor
|:A,2CE FEcB|AEFA FECE|cBBA F2EC|B,2A,B, CEEC|
A,2CE FEcB|AEFA FECE|cBBA F2EC|B,A,CB, A,3 B,:|
|:~C2EC A,CEA|~c2Bc AF Eg|aAfa effe|c2BA F2AF|
EA,CE EFAB|c2Bc AF E2|aAfa efBA|1 F2EF A4:|2 F2EC A,4||

